X: 0891
T: WASHINGTON'S MARCH
B: Oliver Ditson "The Boston Collection of Instrumental Music" 1910 p.89 #1
F: http://conquest.imslp.info/files/imglnks/usimg/8/8f/IMSLP175643-PMLP309456-bostoncollection00bost_bw.pdf
%: 2012 John Chambers <jc:trillian.mit.edu>
M: 4/4
L: 1/16
K: G
|:\
G4D3G B4G3B | d4B3d g8 | e4g3e d4g3e | d3cB3A B4G4 |\
e4g3e d4g3e | d3cB3A B4G4 | BcBc d2d2 e2d2c2B2 | A4d3d d4z4 |
BcBc d2d2 e2d2c2B2 | A4A3A A8 | g2f2e2d2 f2e2d2^c2 | d4d3d d8 :|\
|:\
ABAB c2c2 d2c2B2A2 | BcBc d2d2 e2d2c2B2 | ABAB c2c2 d2c2B2A2 | B4A3A A8 |
dedc BcBA G4G4 | d2=f2e2d2 e8 | efed cdcB A4A4 | e2g2f2e2 f6ef |\
g4d3d d4g3e | d4B3B B4d4 | g2g2f2e2 d2c2B2A2 G4G3G G8 :|

%%sep 1 1 500
%%sep 1 1 500
